X: 7
T: The Rakes Of Mallow
R: polka
M: 2/4
L: 1/8
K: Gmaj
|: GB GB | GB c/B/A/G/ | FA FA | FA d/c/B/A/ |GB GB | GB d2 | c/B/A/G/ F/G/A/c/ | BG G2 :||: gf/e/ dc | B/A/B/c/ d2 | gf/e/ dc | B/A/B/c/ A2 |gf/e/ dc | B/A/B/c/ d2 | c/B/A/G/ F/G/A/c/ | BG G2 :|


Tune 85	Setting 12598

